apps/ledger-live-desktop/src/renderer/images/lending-terms.svg

<svg width="356" height="203" viewBox="0 0 356 203" fill="none" xmlns="http://www.w3.org/2000/svg">
<g filter="url(#filter0_d)">
<rect width="356" height="260" rx="4" fill="#F5F5F5"/>
<path d="M0 5C0 2.79086 1.79086 1 4 1H74V258H4C1.79086 258 0 256.209 0 254V5Z" fill="white"/>
<circle cx="12.6083" cy="13.9741" r="2.225" fill="#142533" fill-opacity="0.1"/>
<circle cx="20.025" cy="13.9741" r="2.225" fill="#142533" fill-opacity="0.1"/>
<circle cx="27.4416" cy="13.9741" r="2.225" fill="#142533" fill-opacity="0.1"/>
<rect x="10.3833" y="47.3492" width="13.35" height="2.96667" rx="1.48333" fill="#142533" fill-opacity="0.3"/>
<rect x="94" y="36.9658" width="74.1667" height="3" rx="1.5" fill="#142533" fill-opacity="0.3"/>
<rect x="94" y="44" width="30" height="3" rx="1.5" fill="#142533" fill-opacity="0.1"/>
<rect x="10.3833" y="136.349" width="13.35" height="2.96667" rx="1.48333" fill="#142533" fill-opacity="0.3"/>
<rect x="10.3833" y="59.2158" width="44.5" height="2.96667" rx="1.48333" fill="#142533" fill-opacity="0.1"/>
<rect x="10.3833" y="71.0826" width="38.5667" height="2.96667" rx="1.48333" fill="#142533" fill-opacity="0.1"/>
<rect x="10.3833" y="82.9492" width="44.5" height="2.96667" rx="1.48333" fill="#142533" fill-opacity="0.1"/>
<rect x="10.3833" y="94.816" width="38.5667" height="2.96667" rx="1.48333" fill="#142533" fill-opacity="0.1"/>
<rect x="10.3833" y="106.682" width="44.5" height="2.96667" rx="1.48333" fill="#8a80db"/>
<rect x="26.7" y="148.216" width="31.15" height="2.96667" rx="1.48333" fill="#142533" fill-opacity="0.1"/>
<rect x="26.7" y="154.149" width="22.25" height="2.96667" rx="1.48333" fill="#142533" fill-opacity="0.1"/>
<rect x="11.8667" y="148.216" width="8.9" height="8.9" rx="4" fill="#142533" fill-opacity="0.1"/>
<rect x="26.7" y="167.499" width="31.15" height="2.96667" rx="1.48333" fill="#142533" fill-opacity="0.1"/>
<rect x="26.7" y="173.432" width="22.25" height="2.96667" rx="1.48333" fill="#142533" fill-opacity="0.1"/>
<rect x="11.8667" y="167.499" width="8.9" height="8.9" rx="4" fill="#142533" fill-opacity="0.1"/>
<rect x="26.7" y="186.782" width="31.15" height="2.96667" rx="1.48333" fill="#142533" fill-opacity="0.1"/>
<rect x="26.7" y="192.716" width="22.25" height="2.96667" rx="1.48333" fill="#142533" fill-opacity="0.1"/>
<rect x="11.8667" y="186.783" width="8.9" height="8.9" rx="4" fill="#142533" fill-opacity="0.1"/>
<rect x="94" y="152" width="32" height="3" rx="1.5" fill="#142533" fill-opacity="0.3"/>
<rect x="94" y="64" width="240" height="72" rx="4" fill="white"/>
<rect x="106" y="76" width="8" height="8" rx="4" fill="#142533" fill-opacity="0.3"/>
<rect x="154" y="78.5" width="24" height="2.96667" rx="1.48333" fill="#142533" fill-opacity="0.3"/>
<rect x="117" y="78.5" width="16" height="3" rx="1.5" fill="#142533" fill-opacity="0.3"/>
<rect x="202" y="78.5" width="24" height="3" rx="1.5" fill="#142533" fill-opacity="0.3"/>
<rect x="250.167" y="76" width="24" height="8" rx="4" fill="#8a80db" fill-opacity="0.2"/>
<path d="M256.217 81.3253H257.952V82H258.581V81.3253H259.046V80.7837H258.581V78.3636H257.76L256.217 80.8015V81.3253ZM257.959 80.7837H256.892V80.7553L257.931 79.1094H257.959V80.7837ZM259.914 82.0391C260.123 82.0391 260.303 81.8651 260.304 81.6484C260.303 81.4354 260.123 81.2614 259.914 81.2614C259.697 81.2614 259.521 81.4354 259.523 81.6484C259.521 81.8651 259.697 82.0391 259.914 82.0391ZM262.165 78.3139C261.376 78.3086 260.853 78.8501 260.853 79.5604C260.854 80.2457 261.343 80.7411 261.98 80.7411C262.372 80.7411 262.713 80.5511 262.889 80.2386H262.914C262.912 81.0163 262.63 81.4798 262.127 81.4798C261.813 81.4798 261.602 81.2987 261.536 81.0092H260.888C260.963 81.6112 261.438 82.0497 262.127 82.0497C262.999 82.0497 263.555 81.3217 263.553 80.07C263.551 78.7454 262.862 78.3175 262.165 78.3139ZM262.166 78.8466C262.555 78.8466 262.841 79.1697 262.841 79.5408C262.843 79.9173 262.543 80.2404 262.159 80.2404C261.772 80.2404 261.494 79.935 261.492 79.5462C261.492 79.1555 261.781 78.8466 262.166 78.8466ZM266.089 81.3182C266.09 81.7408 266.359 82.1012 266.858 82.1012C267.355 82.1012 267.628 81.7408 267.626 81.3182V81.1264C267.628 80.7003 267.362 80.3434 266.858 80.3434C266.366 80.3434 266.09 80.7038 266.089 81.1264V81.3182ZM264.24 79.2372C264.242 79.6598 264.51 80.0167 265.011 80.0167C265.506 80.0167 265.78 79.6634 265.778 79.2372V79.0455C265.78 78.6193 265.513 78.2624 265.011 78.2624C264.521 78.2624 264.242 78.6193 264.24 79.0455V79.2372ZM264.4 82H264.846L267.346 78.3636H266.9L264.4 82ZM266.552 81.1264C266.554 80.9382 266.634 80.7482 266.858 80.7482C267.092 80.7482 267.161 80.9382 267.159 81.1264V81.3182C267.161 81.5064 267.085 81.6928 266.858 81.6928C266.63 81.6928 266.554 81.5046 266.552 81.3182V81.1264ZM264.707 79.0455C264.709 78.859 264.785 78.6673 265.011 78.6673C265.245 78.6673 265.313 78.8572 265.311 79.0455V79.2372C265.313 79.4254 265.238 79.6119 265.011 79.6119C264.784 79.6119 264.709 79.4254 264.707 79.2372V79.0455Z" fill="#8a80db"/>
<rect x="298" y="78.5" width="24" height="3" rx="1.5" fill="#142533" fill-opacity="0.3"/>
<rect x="106" y="96" width="8" height="8" rx="4" fill="#142533" fill-opacity="0.3"/>
<rect x="154" y="98.5" width="24" height="3" rx="1.5" fill="#142533" fill-opacity="0.3"/>
<rect x="117" y="98.5" width="16" height="3" rx="1.5" fill="#142533" fill-opacity="0.3"/>
<rect x="202" y="98.5" width="24" height="3" rx="1.5" fill="#142533" fill-opacity="0.3"/>
<rect x="250.167" y="96" width="24" height="8" rx="4" fill="#8a80db" fill-opacity="0.2"/>
<path d="M256.217 101.325H257.952V102H258.581V101.325H259.046V100.784H258.581V98.3636H257.76L256.217 100.801V101.325ZM257.959 100.784H256.892V100.755L257.931 99.1094H257.959V100.784ZM259.914 102.039C260.123 102.039 260.303 101.865 260.304 101.648C260.303 101.435 260.123 101.261 259.914 101.261C259.697 101.261 259.521 101.435 259.523 101.648C259.521 101.865 259.697 102.039 259.914 102.039ZM262.165 98.3139C261.376 98.3086 260.853 98.8501 260.853 99.5604C260.854 100.246 261.343 100.741 261.98 100.741C262.372 100.741 262.713 100.551 262.889 100.239H262.914C262.912 101.016 262.63 101.48 262.127 101.48C261.813 101.48 261.602 101.299 261.536 101.009H260.888C260.963 101.611 261.438 102.05 262.127 102.05C262.999 102.05 263.555 101.322 263.553 100.07C263.551 98.7454 262.862 98.3175 262.165 98.3139ZM262.166 98.8466C262.555 98.8466 262.841 99.1697 262.841 99.5408C262.843 99.9173 262.543 100.24 262.159 100.24C261.772 100.24 261.494 99.935 261.492 99.5462C261.492 99.1555 261.781 98.8466 262.166 98.8466ZM266.089 101.318C266.09 101.741 266.359 102.101 266.858 102.101C267.355 102.101 267.628 101.741 267.626 101.318V101.126C267.628 100.7 267.362 100.343 266.858 100.343C266.366 100.343 266.09 100.704 266.089 101.126V101.318ZM264.24 99.2372C264.242 99.6598 264.51 100.017 265.011 100.017C265.506 100.017 265.78 99.6634 265.778 99.2372V99.0455C265.78 98.6193 265.513 98.2624 265.011 98.2624C264.521 98.2624 264.242 98.6193 264.24 99.0455V99.2372ZM264.4 102H264.846L267.346 98.3636H266.9L264.4 102ZM266.552 101.126C266.554 100.938 266.634 100.748 266.858 100.748C267.092 100.748 267.161 100.938 267.159 101.126V101.318C267.161 101.506 267.085 101.693 266.858 101.693C266.63 101.693 266.554 101.505 266.552 101.318V101.126ZM264.707 99.0455C264.709 98.859 264.785 98.6673 265.011 98.6673C265.245 98.6673 265.313 98.8572 265.311 99.0455V99.2372C265.313 99.4254 265.238 99.6119 265.011 99.6119C264.784 99.6119 264.709 99.4254 264.707 99.2372V99.0455Z" fill="#8a80db"/>
<rect x="298" y="98.5" width="24" height="3" rx="1.5" fill="#142533" fill-opacity="0.3"/>
<rect x="106" y="116" width="8" height="8" rx="4" fill="#142533" fill-opacity="0.3"/>
<rect x="154" y="118.5" width="24" height="3" rx="1.5" fill="#142533" fill-opacity="0.3"/>
<rect x="117" y="118.5" width="16" height="3" rx="1.5" fill="#142533" fill-opacity="0.3"/>
<rect x="202" y="118.5" width="24" height="3" rx="1.5" fill="#142533" fill-opacity="0.3"/>
<rect x="250.167" y="116" width="24" height="8" rx="4" fill="#8a80db" fill-opacity="0.2"/>
<path d="M256.217 121.325H257.952V122H258.581V121.325H259.046V120.784H258.581V118.364H257.76L256.217 120.801V121.325ZM257.959 120.784H256.892V120.755L257.931 119.109H257.959V120.784ZM259.914 122.039C260.123 122.039 260.303 121.865 260.304 121.648C260.303 121.435 260.123 121.261 259.914 121.261C259.697 121.261 259.521 121.435 259.523 121.648C259.521 121.865 259.697 122.039 259.914 122.039ZM262.165 118.314C261.376 118.309 260.853 118.85 260.853 119.56C260.854 120.246 261.343 120.741 261.98 120.741C262.372 120.741 262.713 120.551 262.889 120.239H262.914C262.912 121.016 262.63 121.48 262.127 121.48C261.813 121.48 261.602 121.299 261.536 121.009H260.888C260.963 121.611 261.438 122.05 262.127 122.05C262.999 122.05 263.555 121.322 263.553 120.07C263.551 118.745 262.862 118.317 262.165 118.314ZM262.166 118.847C262.555 118.847 262.841 119.17 262.841 119.541C262.843 119.917 262.543 120.24 262.159 120.24C261.772 120.24 261.494 119.935 261.492 119.546C261.492 119.156 261.781 118.847 262.166 118.847ZM266.089 121.318C266.09 121.741 266.359 122.101 266.858 122.101C267.355 122.101 267.628 121.741 267.626 121.318V121.126C267.628 120.7 267.362 120.343 266.858 120.343C266.366 120.343 266.09 120.704 266.089 121.126V121.318ZM264.24 119.237C264.242 119.66 264.51 120.017 265.011 120.017C265.506 120.017 265.78 119.663 265.778 119.237V119.045C265.78 118.619 265.513 118.262 265.011 118.262C264.521 118.262 264.242 118.619 264.24 119.045V119.237ZM264.4 122H264.846L267.346 118.364H266.9L264.4 122ZM266.552 121.126C266.554 120.938 266.634 120.748 266.858 120.748C267.092 120.748 267.161 120.938 267.159 121.126V121.318C267.161 121.506 267.085 121.693 266.858 121.693C266.63 121.693 266.554 121.505 266.552 121.318V121.126ZM264.707 119.045C264.709 118.859 264.785 118.667 265.011 118.667C265.245 118.667 265.313 118.857 265.311 119.045V119.237C265.313 119.425 265.238 119.612 265.011 119.612C264.784 119.612 264.709 119.425 264.707 119.237V119.045Z" fill="#8a80db"/>
<rect x="298" y="118.5" width="24" height="3" rx="1.5" fill="#142533" fill-opacity="0.3"/>
<rect x="94" y="167" width="240" height="37" rx="4" fill="white"/>
<rect x="290" y="180" width="32" height="12" rx="2" fill="#8a80db"/>
<path d="M294.642 188H296.903V187.448H295.301V184.364H294.642V188ZM298.653 188.053C299.289 188.053 299.726 187.743 299.839 187.268L299.239 187.201C299.152 187.432 298.939 187.553 298.662 187.553C298.247 187.553 297.972 187.279 297.966 186.812H299.866V186.615C299.866 185.658 299.291 185.237 298.62 185.237C297.838 185.237 297.329 185.811 297.329 186.652C297.329 187.508 297.831 188.053 298.653 188.053ZM297.968 186.379C297.988 186.031 298.245 185.738 298.629 185.738C298.998 185.738 299.246 186.008 299.25 186.379H297.968ZM301.053 186.402C301.053 186.008 301.291 185.781 301.63 185.781C301.962 185.781 302.161 185.999 302.161 186.363V188H302.803V186.263C302.805 185.61 302.432 185.237 301.869 185.237C301.461 185.237 301.18 185.433 301.056 185.736H301.024V185.273H300.41V188H301.053V186.402ZM304.469 188.048C304.938 188.048 305.149 187.769 305.25 187.57H305.289V188H305.921V184.364H305.277V185.724H305.25C305.152 185.527 304.952 185.237 304.471 185.237C303.84 185.237 303.345 185.731 303.345 186.64C303.345 187.538 303.826 188.048 304.469 188.048ZM304.648 187.521C304.224 187.521 304 187.148 304 186.636C304 186.129 304.22 185.765 304.648 185.765C305.062 185.765 305.289 186.107 305.289 186.636C305.289 187.165 305.058 187.521 304.648 187.521ZM308.489 186.402C308.489 186.008 308.727 185.781 309.066 185.781C309.398 185.781 309.597 185.999 309.597 186.363V188H310.24V186.263C310.242 185.61 309.869 185.237 309.306 185.237C308.898 185.237 308.617 185.433 308.493 185.736H308.461V185.273H307.846V188H308.489V186.402ZM312.083 188.053C312.882 188.053 313.39 187.49 313.39 186.647C313.39 185.802 312.882 185.237 312.083 185.237C311.284 185.237 310.776 185.802 310.776 186.647C310.776 187.49 311.284 188.053 312.083 188.053ZM312.086 187.538C311.644 187.538 311.428 187.144 311.428 186.645C311.428 186.146 311.644 185.747 312.086 185.747C312.521 185.747 312.738 186.146 312.738 186.645C312.738 187.144 312.521 187.538 312.086 187.538ZM314.425 188H315.096L315.607 186.157H315.645L316.156 188H316.825L317.598 185.273H316.941L316.469 187.18H316.442L315.952 185.273H315.304L314.814 187.19H314.789L314.309 185.273H313.654L314.425 188Z" fill="white"/>
<rect x="106" y="179" width="104" height="3" rx="1.5" fill="#142533" fill-opacity="0.2"/>
<rect x="106" y="189" width="72" height="3" rx="1.5" fill="#142533" fill-opacity="0.1"/>
<rect x="0.5" y="0.5" width="355" height="259" rx="3.5" stroke="#142533" stroke-opacity="0.1"/>
</g>
<defs>
<filter id="filter0_d" x="-5.05" y="-2.525" width="366.1" height="270.1" filterUnits="userSpaceOnUse" color-interpolation-filters="sRGB">
<feFlood flood-opacity="0" result="BackgroundImageFix"/>
<feColorMatrix in="SourceAlpha" type="matrix" values="0 0 0 0 0 0 0 0 0 0 0 0 0 0 0 0 0 0 127 0"/>
<feOffset dy="2.525"/>
<feGaussianBlur stdDeviation="2.525"/>
<feColorMatrix type="matrix" values="0 0 0 0 0 0 0 0 0 0 0 0 0 0 0 0 0 0 0.04 0"/>
<feBlend mode="normal" in2="BackgroundImageFix" result="effect1_dropShadow"/>
<feBlend mode="normal" in="SourceGraphic" in2="effect1_dropShadow" result="shape"/>
</filter>
</defs>
</svg>

<svg xmlns="http://www.w3.org/2000/svg" width="356" height="203" fill="none" viewBox="0 0 356 203"><g filter="url(#a)"><rect width="356" height="260" fill="#f5f5f5" rx="4"/><path fill="#fff" d="M0 5a4 4 0 0 1 4-4h70v257H4a4 4 0 0 1-4-4z"/><circle cx="12.608" cy="13.974" r="2.225" fill="#142533" fill-opacity=".1"/><circle cx="20.025" cy="13.974" r="2.225" fill="#142533" fill-opacity=".1"/><circle cx="27.442" cy="13.974" r="2.225" fill="#142533" fill-opacity=".1"/><rect width="13.35" height="2.967" x="10.383" y="47.349" fill="#142533" fill-opacity=".3" rx="1.483"/><rect width="74.167" height="3" x="94" y="36.966" fill="#142533" fill-opacity=".3" rx="1.5"/><rect width="30" height="3" x="94" y="44" fill="#142533" fill-opacity=".1" rx="1.5"/><rect width="13.35" height="2.967" x="10.383" y="136.349" fill="#142533" fill-opacity=".3" rx="1.483"/><rect width="44.5" height="2.967" x="10.383" y="59.216" fill="#142533" fill-opacity=".1" rx="1.483"/><rect width="38.567" height="2.967" x="10.383" y="71.083" fill="#142533" fill-opacity=".1" rx="1.483"/><rect width="44.5" height="2.967" x="10.383" y="82.949" fill="#142533" fill-opacity=".1" rx="1.483"/><rect width="38.567" height="2.967" x="10.383" y="94.816" fill="#142533" fill-opacity=".1" rx="1.483"/><rect width="44.5" height="2.967" x="10.383" y="106.682" fill="#8a80db" rx="1.483"/><rect width="31.15" height="2.967" x="26.7" y="148.216" fill="#142533" fill-opacity=".1" rx="1.483"/><rect width="22.25" height="2.967" x="26.7" y="154.149" fill="#142533" fill-opacity=".1" rx="1.483"/><rect width="8.9" height="8.9" x="11.867" y="148.216" fill="#142533" fill-opacity=".1" rx="4"/><rect width="31.15" height="2.967" x="26.7" y="167.499" fill="#142533" fill-opacity=".1" rx="1.483"/><rect width="22.25" height="2.967" x="26.7" y="173.432" fill="#142533" fill-opacity=".1" rx="1.483"/><rect width="8.9" height="8.9" x="11.867" y="167.499" fill="#142533" fill-opacity=".1" rx="4"/><rect width="31.15" height="2.967" x="26.7" y="186.782" fill="#142533" fill-opacity=".1" rx="1.483"/><rect width="22.25" height="2.967" x="26.7" y="192.716" fill="#142533" fill-opacity=".1" rx="1.483"/><rect width="8.9" height="8.9" x="11.867" y="186.783" fill="#142533" fill-opacity=".1" rx="4"/><rect width="32" height="3" x="94" y="152" fill="#142533" fill-opacity=".3" rx="1.5"/><rect width="240" height="72" x="94" y="64" fill="#fff" rx="4"/><rect width="8" height="8" x="106" y="76" fill="#142533" fill-opacity=".3" rx="4"/><rect width="24" height="2.967" x="154" y="78.5" fill="#142533" fill-opacity=".3" rx="1.483"/><rect width="16" height="3" x="117" y="78.5" fill="#142533" fill-opacity=".3" rx="1.5"/><rect width="24" height="3" x="202" y="78.5" fill="#142533" fill-opacity=".3" rx="1.5"/><rect width="24" height="8" x="250.167" y="76" fill="#8a80db" fill-opacity=".2" rx="4"/><path fill="#8a80db" d="M256.217 81.325h1.735V82h.629v-.675h.465v-.541h-.465v-2.42h-.821l-1.543 2.438zm1.742-.541h-1.067v-.029l1.039-1.646h.028zm1.955 1.255a.395.395 0 0 0 .39-.39.394.394 0 0 0-.39-.388.388.388 0 1 0 0 .778m2.251-3.725c-.789-.005-1.312.536-1.312 1.246.001.686.49 1.181 1.127 1.181.392 0 .733-.19.909-.502h.025c-.002.777-.284 1.24-.787 1.24a.57.57 0 0 1-.591-.47h-.648c.075.602.55 1.04 1.239 1.04.872 0 1.428-.727 1.426-1.979-.002-1.325-.691-1.752-1.388-1.756m.001.533c.389 0 .675.323.675.694a.69.69 0 0 1-.682.7c-.387 0-.665-.306-.667-.695 0-.39.289-.7.674-.7m3.923 2.471c.001.423.27.783.769.783.497 0 .77-.36.768-.783v-.192c.002-.426-.264-.783-.768-.783-.492 0-.768.36-.769.783zm-1.849-2.08c.002.422.27.779.771.779.495 0 .769-.354.767-.78v-.191c.002-.427-.265-.784-.767-.784-.49 0-.769.357-.771.784zM264.4 82h.446l2.5-3.636h-.446zm2.152-.874c.002-.188.082-.378.306-.378.234 0 .303.19.301.378v.192c.002.188-.074.375-.301.375-.228 0-.304-.188-.306-.375zm-1.845-2.08c.002-.187.078-.379.304-.379.234 0 .302.19.3.379v.191c.002.188-.073.375-.3.375s-.302-.187-.304-.375z"/><rect width="24" height="3" x="298" y="78.5" fill="#142533" fill-opacity=".3" rx="1.5"/><rect width="8" height="8" x="106" y="96" fill="#142533" fill-opacity=".3" rx="4"/><rect width="24" height="3" x="154" y="98.5" fill="#142533" fill-opacity=".3" rx="1.5"/><rect width="16" height="3" x="117" y="98.5" fill="#142533" fill-opacity=".3" rx="1.5"/><rect width="24" height="3" x="202" y="98.5" fill="#142533" fill-opacity=".3" rx="1.5"/><rect width="24" height="8" x="250.167" y="96" fill="#8a80db" fill-opacity=".2" rx="4"/><path fill="#8a80db" d="M256.217 101.325h1.735V102h.629v-.675h.465v-.541h-.465v-2.42h-.821l-1.543 2.437zm1.742-.541h-1.067v-.029l1.039-1.646h.028zm1.955 1.255a.395.395 0 0 0 .39-.391.394.394 0 0 0-.39-.387.388.388 0 1 0 0 .778m2.251-3.725c-.789-.005-1.312.536-1.312 1.246.001.686.49 1.181 1.127 1.181.392 0 .733-.19.909-.502h.025c-.002.777-.284 1.241-.787 1.241a.57.57 0 0 1-.591-.471h-.648c.075.602.55 1.041 1.239 1.041.872 0 1.428-.728 1.426-1.98-.002-1.325-.691-1.752-1.388-1.756m.001.533c.389 0 .675.323.675.694a.69.69 0 0 1-.682.699c-.387 0-.665-.305-.667-.694 0-.39.289-.7.674-.7m3.923 2.471c.001.423.27.783.769.783.497 0 .77-.36.768-.783v-.192c.002-.426-.264-.783-.768-.783-.492 0-.768.361-.769.783zm-1.849-2.08c.002.422.27.779.771.779.495 0 .769-.354.767-.78v-.191c.002-.427-.265-.784-.767-.784-.49 0-.769.357-.771.784zm.16 2.762h.446l2.5-3.636h-.446zm2.152-.874c.002-.188.082-.378.306-.378.234 0 .303.19.301.378v.192c.002.188-.074.375-.301.375-.228 0-.304-.188-.306-.375zm-1.845-2.08c.002-.187.078-.379.304-.379.234 0 .302.19.3.379v.191c.002.188-.073.375-.3.375s-.302-.187-.304-.375z"/><rect width="24" height="3" x="298" y="98.5" fill="#142533" fill-opacity=".3" rx="1.5"/><rect width="8" height="8" x="106" y="116" fill="#142533" fill-opacity=".3" rx="4"/><rect width="24" height="3" x="154" y="118.5" fill="#142533" fill-opacity=".3" rx="1.5"/><rect width="16" height="3" x="117" y="118.5" fill="#142533" fill-opacity=".3" rx="1.5"/><rect width="24" height="3" x="202" y="118.5" fill="#142533" fill-opacity=".3" rx="1.5"/><rect width="24" height="8" x="250.167" y="116" fill="#8a80db" fill-opacity=".2" rx="4"/><path fill="#8a80db" d="M256.217 121.325h1.735V122h.629v-.675h.465v-.541h-.465v-2.42h-.821l-1.543 2.437zm1.742-.541h-1.067v-.029l1.039-1.646h.028zm1.955 1.255a.395.395 0 0 0 .39-.391.394.394 0 0 0-.39-.387.388.388 0 1 0 0 .778m2.251-3.725c-.789-.005-1.312.536-1.312 1.246.001.686.49 1.181 1.127 1.181.392 0 .733-.19.909-.502h.025c-.002.777-.284 1.241-.787 1.241a.57.57 0 0 1-.591-.471h-.648c.075.602.55 1.041 1.239 1.041.872 0 1.428-.728 1.426-1.98-.002-1.325-.691-1.753-1.388-1.756m.001.533c.389 0 .675.323.675.694a.69.69 0 0 1-.682.699c-.387 0-.665-.305-.667-.694 0-.39.289-.699.674-.699m3.923 2.471c.001.423.27.783.769.783.497 0 .77-.36.768-.783v-.192c.002-.426-.264-.783-.768-.783-.492 0-.768.361-.769.783zm-1.849-2.081c.002.423.27.78.771.78.495 0 .769-.354.767-.78v-.192c.002-.426-.265-.783-.767-.783-.49 0-.769.357-.771.783zm.16 2.763h.446l2.5-3.636h-.446zm2.152-.874c.002-.188.082-.378.306-.378.234 0 .303.19.301.378v.192c.002.188-.074.375-.301.375-.228 0-.304-.188-.306-.375zm-1.845-2.081c.002-.186.078-.378.304-.378.234 0 .302.19.3.378v.192c.002.188-.073.375-.3.375s-.302-.187-.304-.375z"/><rect width="24" height="3" x="298" y="118.5" fill="#142533" fill-opacity=".3" rx="1.5"/><rect width="240" height="37" x="94" y="167" fill="#fff" rx="4"/><rect width="32" height="12" x="290" y="180" fill="#8a80db" rx="2"/><path fill="#fff" d="M294.642 188h2.261v-.552h-1.602v-3.084h-.659zm4.011.053c.636 0 1.073-.31 1.186-.785l-.6-.067c-.087.231-.3.352-.577.352-.415 0-.69-.274-.696-.741h1.9v-.197c0-.957-.575-1.378-1.246-1.378-.782 0-1.291.574-1.291 1.415 0 .856.502 1.401 1.324 1.401m-.685-1.674c.02-.348.277-.641.661-.641.369 0 .617.27.621.641zm3.085.023c0-.394.238-.621.577-.621.332 0 .531.218.531.582V188h.642v-1.737c.002-.653-.371-1.026-.934-1.026-.408 0-.689.196-.813.499h-.032v-.463h-.614V188h.643zm3.416 1.646c.469 0 .68-.279.781-.478h.039v.43h.632v-3.636h-.644v1.36h-.027c-.098-.197-.298-.487-.779-.487-.631 0-1.126.494-1.126 1.403 0 .898.481 1.408 1.124 1.408m.179-.527c-.424 0-.648-.373-.648-.885 0-.507.22-.871.648-.871.414 0 .641.342.641.871s-.231.885-.641.885m3.841-1.119c0-.394.238-.621.577-.621.332 0 .531.218.531.582V188h.643v-1.737c.002-.653-.371-1.026-.934-1.026-.408 0-.689.196-.813.499h-.032v-.463h-.615V188h.643zm3.594 1.651c.799 0 1.307-.563 1.307-1.406 0-.845-.508-1.41-1.307-1.41s-1.307.565-1.307 1.41c0 .843.508 1.406 1.307 1.406m.003-.515c-.442 0-.658-.394-.658-.893s.216-.898.658-.898c.435 0 .652.399.652.898s-.217.893-.652.893m2.339.462h.671l.511-1.843h.038l.511 1.843h.669l.773-2.727h-.657l-.472 1.907h-.027l-.49-1.907h-.648l-.49 1.917h-.025l-.48-1.917h-.655z"/><rect width="104" height="3" x="106" y="179" fill="#142533" fill-opacity=".2" rx="1.5"/><rect width="72" height="3" x="106" y="189" fill="#142533" fill-opacity=".1" rx="1.5"/><rect width="355" height="259" x=".5" y=".5" stroke="#142533" stroke-opacity=".1" rx="3.5"/></g><defs><filter id="a" width="366.1" height="270.1" x="-5.05" y="-2.525" color-interpolation-filters="sRGB" filterUnits="userSpaceOnUse"><feFlood flood-opacity="0" result="BackgroundImageFix"/><feColorMatrix in="SourceAlpha" values="0 0 0 0 0 0 0 0 0 0 0 0 0 0 0 0 0 0 127 0"/><feOffset dy="2.525"/><feGaussianBlur stdDeviation="2.525"/><feColorMatrix values="0 0 0 0 0 0 0 0 0 0 0 0 0 0 0 0 0 0 0.04 0"/><feBlend in2="BackgroundImageFix" result="effect1_dropShadow"/><feBlend in="SourceGraphic" in2="effect1_dropShadow" result="shape"/></filter></defs></svg>
